assets/images/icon-notifications.svg

<?xml version="1.0" encoding="UTF-8"?>
<svg width="48px" height="48px" viewBox="0 0 48 48" version="1.1" xmlns="http://www.w3.org/2000/svg" xmlns:xlink="http://www.w3.org/1999/xlink">
    <!-- Generator: Sketch 48.2 (47327) - http://www.bohemiancoding.com/sketch -->
    <title>icon-notifications</title>
    <desc>Created with Sketch.</desc>
    <defs/>
    <g id="data-type" stroke="none" stroke-width="1" fill="none" fill-rule="evenodd">
        <g id="icon-notifications">
            <g id="Page-1">
                <path d="M24,0 C37.255,0 48,10.745 48,24 C48,37.255 37.255,48 24,48 C10.745,48 0,37.255 0,24 C0,10.745 10.745,0 24,0" id="Fill-1" fill="#FCBABA"/>
                <path d="M26.5361,36.3926 L33.4641,32.3926 L33.4701,32.4026 C34.5711,34.3106 33.9271,36.7446 32.0001,37.8566 C30.0871,38.9606 27.6411,38.3066 26.5421,36.4026 L26.5361,36.3926 Z M25.5361,34.6606 L18.6191,38.6536 C17.6561,39.2096 16.4321,38.8916 15.8751,37.9276 C15.3231,36.9716 15.6611,35.7436 16.6081,35.1966 C16.6081,35.1966 15.6081,33.4636 14.6081,31.7326 C12.1581,27.4896 11.3511,20.7586 14.9091,16.2536 L14.5301,15.5976 C13.4291,13.6896 14.0741,11.2556 16.0001,10.1436 C17.9131,9.0386 20.3581,9.6926 21.4581,11.5976 L21.8371,12.2536 C27.5171,11.4256 32.9421,15.4896 35.3921,19.7316 L37.3921,23.1966 C38.3491,22.6436 39.5681,22.9646 40.1241,23.9286 C40.6771,24.8846 40.3451,26.1106 39.3811,26.6666 L32.4641,30.6606 L25.5361,34.6606 Z" id="Fill-3" fill="#F52D2D"/>
            </g>
        </g>
    </g>
</svg>

<svg width="48" height="48" xmlns="http://www.w3.org/2000/svg"><g fill="none" fill-rule="evenodd"><path d="M24 0c13.255 0 24 10.745 24 24S37.255 48 24 48 0 37.255 0 24 10.745 0 24 0" fill="#FCBABA"/><path d="M26.536 36.393l6.928-4 .006.01A3.984 3.984 0 0 1 32 37.857a3.997 3.997 0 0 1-5.458-1.454l-.006-.01zm-1-1.732l-6.917 3.993a2.002 2.002 0 0 1-2.744-.726 2.007 2.007 0 0 1 .733-2.731l-2-3.464c-2.45-4.243-3.257-10.974.301-15.48l-.379-.655A3.985 3.985 0 0 1 16 10.144a3.995 3.995 0 0 1 5.458 1.454l.38.656c5.68-.828 11.104 3.236 13.554 7.478l2 3.465a1.994 1.994 0 0 1 2.732.732 2.004 2.004 0 0 1-.743 2.738l-6.917 3.994-6.928 4z" fill="#F52D2D"/></g></svg>
